seeds/icons/car.svg

<?xml version="1.0" encoding="utf-8"?><!-- Uploaded to: SVG Repo, www.svgrepo.com, Generator: SVG Repo Mixer Tools -->
<svg width="1.5rem" height="1.5rem" viewBox="0 0 24 24" fill="none" xmlns="http://www.w3.org/2000/svg">
<path d="M3 8L5.72187 10.2682C5.90158 10.418 6.12811 10.5 6.36205 10.5H17.6379C17.8719 10.5 18.0984 10.418 18.2781 10.2682L21 8M6.5 14H6.51M17.5 14H17.51M8.16065 4.5H15.8394C16.5571 4.5 17.2198 4.88457 17.5758 5.50772L20.473 10.5777C20.8183 11.1821 21 11.8661 21 12.5623V18.5C21 19.0523 20.5523 19.5 20 19.5H19C18.4477 19.5 18 19.0523 18 18.5V17.5H6V18.5C6 19.0523 5.55228 19.5 5 19.5H4C3.44772 19.5 3 19.0523 3 18.5V12.5623C3 11.8661 3.18166 11.1821 3.52703 10.5777L6.42416 5.50772C6.78024 4.88457 7.44293 4.5 8.16065 4.5ZM7 14C7 14.2761 6.77614 14.5 6.5 14.5C6.22386 14.5 6 14.2761 6 14C6 13.7239 6.22386 13.5 6.5 13.5C6.77614 13.5 7 13.7239 7 14ZM18 14C18 14.2761 17.7761 14.5 17.5 14.5C17.2239 14.5 17 14.2761 17 14C17 13.7239 17.2239 13.5 17.5 13.5C17.7761 13.5 18 13.7239 18 14Z" stroke="#000000" stroke-width="2" stroke-linecap="round" stroke-linejoin="round"/>
</svg>

<svg xmlns="http://www.w3.org/2000/svg" width="1.5rem" height="1.5rem" fill="none" viewBox="0 0 24 24"><path stroke="#000" stroke-linecap="round" stroke-linejoin="round" stroke-width="2" d="m3 8 2.722 2.268a1 1 0 0 0 .64.232h11.276a1 1 0 0 0 .64-.232L21 8M6.5 14h.01m10.99 0h.01M8.16 4.5h7.68a2 2 0 0 1 1.736 1.008l2.897 5.07A4 4 0 0 1 21 12.562V18.5a1 1 0 0 1-1 1h-1a1 1 0 0 1-1-1v-1H6v1a1 1 0 0 1-1 1H4a1 1 0 0 1-1-1v-5.938a4 4 0 0 1 .527-1.984l2.897-5.07A2 2 0 0 1 8.161 4.5M7 14a.5.5 0 1 1-1 0 .5.5 0 0 1 1 0m11 0a.5.5 0 1 1-1 0 .5.5 0 0 1 1 0"/></svg>
